X: 54
T:Goddess,The. WCa.54
M:2/4
Q:60
S:Wm. Calvert MS, 1812, Leyburn, Yorks.
R:Country dance
O:England
A:North Yorkshire
Z:vmp.Chris Partington, May 2003
K:D
DFAd|d/c/e/c/ A2|Aceg|fa/f/d2|fa/f/ gg|eg/e/f2|dd/f/ ef|g/e/d/c/d2::!
ee d/c/B/A/|ee d/c/B/A/|aa g/f/e/d/|aa g/f/e/d/|!
fa/f/ gg|eg/e/ f2|dd/f/ e>f|g/e/d/c/d2::!
Adfa|geg2|fedc|d/c/d/e/ dA|Adfa|a2gf|gedc|d2d2::!
A2GF|G>ABB|Ag ec|d/c/d/e/ dd|A2GF|G/F/G/A/ BB|Agec|d2d2:||
% Output from ABC2Win  Version 2.1 k pre2 on 20/09/2003
